X: 8350
T: Counsellor Dillon
R: jig
M: 6/8
K: Gmajor
B3 ABA|FDD E3|EFA B2 c|d/f/ed cec|
dcB AFD|D3 AFD|E3 EFA|B3 B2A||
Bee efe|fga gfe|f/g/af d2 B|AFD AFD|
dcB AFD|D3 AFD|E3 EFA|B3 B2A||

